src/images_karasa_jaga_svg/cmd/sc_starshapes.horizontal-scroll.svg

<svg height="16" viewBox="0 0 16 16" width="16" xmlns="http://www.w3.org/2000/svg" xmlns:xlink="http://www.w3.org/1999/xlink"><linearGradient id="a"><stop offset="0" stop-color="#fff"/><stop offset=".59375" stop-color="#fff"/><stop offset=".84375" stop-color="#f1f1f1"/><stop offset=".90625" stop-color="#eaeaea"/><stop offset="1" stop-color="#dfdfdf"/></linearGradient><linearGradient id="b"><stop offset="0" stop-color="#7c9fcf"/><stop offset=".5" stop-color="#7c9ece"/><stop offset="1" stop-color="#7b9dcf"/></linearGradient><linearGradient id="c" gradientUnits="userSpaceOnUse" x1="127" x2=".026365" xlink:href="#a" y1="66" y2="63.973637"/><linearGradient id="d" gradientUnits="userSpaceOnUse" x1="128.02637" x2=".026365" xlink:href="#a" y1="23.973637" y2="23.973637"/><linearGradient id="e" gradientUnits="userSpaceOnUse" x1="128.02637" x2=".026365" xlink:href="#a" y1="111.97363" y2="111.97363"/><linearGradient id="f" gradientUnits="userSpaceOnUse" x1="29.214844" x2="127.93359" xlink:href="#b" y1="19.98387" y2="19.98387"/><linearGradient id="g" gradientUnits="userSpaceOnUse" x1="10.256022" x2="112.10156" xlink:href="#b" y1="64" y2="64"/><linearGradient id="h" gradientUnits="userSpaceOnUse" x1=".119139" x2="96.394531" xlink:href="#b" y1="107.95215" y2="107.95215"/><g transform="matrix(0 .125 .125 0 .000004 -.003293)"><path d="m88.501953 88.023438-70.826172.101562-6.091797-.0059a7.882265 7.882265 0 0 0 -.01953 0c-2.6814441.0039-5.0720755 1.36662-6.3730468 2.611328-1.3009712 1.244708-1.9287519 2.386212-2.421875 3.40625-.9862461 2.040075-1.3875436 3.801759-1.7363281 5.566406-.69756901 3.529296-.91317658 6.723936-.91406248 8.941406a7.882265 7.882265 0 0 0 0 .01c.003704 4.61988 1.61645768 8.69925 4.24999998 12.17187 2.6335424 3.47263 6.6582364 6.60218 12.0683594 7.03125a7.882265 7.882265 0 0 0 .623047.0234h.125a7.882265 7.882265 0 0 0 .03125 0l70.828125-.2832a7.882265 7.882265 0 0 0 7.849609-7.88086v-.0762a7.882265 7.882265 0 0 0 -7.082032-7.84192c.270242.0275-.291598-.078-.90625-.86914-.613611-.78978-.971442-2.02941-.972656-2.37696.0025-.0901.50118-2.05854 1.40625-3.32031.90727-1.26484 1.952342-1.422.972656-1.32226a7.882265 7.882265 0 0 0 7.082031-7.841801v-.164062a7.882265 7.882265 0 0 0 -7.892578-7.880859z" fill="url(#h)"/><path d="m88.012991 119.71688v-.0762c-4.933667-.50225-8.96237-6.13328-8.962386-11.09245.006-4.95468 4.533179-11.97747 9.462386-12.47927v-.16398l-70.835876.10002-6.101217-.005c-2.7289718.004-3.5747318 9.72867-3.575898 12.64776.00404 5.03888 4.036815 10.95386 9.059927 11.35224h.125z" fill="url(#e)"/><path d="m32-.01171875a8.0116215 8.0116215 0 0 0 -.935547.05664062c-8.580815 1.00948353-14.713717 9.18616373-15.068359 17.25195313a8.0116215 8.0116215 0 0 0 -.0078.367187l.1875 94.294918a8.0116215 8.0116215 0 0 0 -.5.4629 8.0116215 8.0116215 0 0 0 2.082031 15.57617c.229942.0134.485837-.002.730469-.002a8.0116215 8.0116215 0 0 0 .367188.0156h77.144518c8.16673 0 16.0033-6.91471 16.01172-15.38477l.0898-90.796872a8.0116215 8.0116215 0 0 0 -.002-.06055l-.08975-13.8221924a8.0116215 8.0116215 0 0 0 -8.00977-7.95898435z" fill="url(#g)"/><path d="m32 8c-4.835185.5688317-7.768165 4.375773-8 9.648494l.189022 95.431736c.0046 2.31327-1.078149 3.51822-2.786919 4.9426-.535656 1.08237-1.156229 1.89268-2.547215 1.97717h77.145112c4.63552 0 7.99571-3.06579 8-7.38161l.0903-90.795276-.0903-13.823114zm-13.288967 112h-.488387c.171763.01.332867.01.488387 0z" fill="url(#c)"/><path d="m37.15625-.00976563a7.9346666 7.9346666 0 0 0 -7.941406 7.93359373v.0761719a7.9346666 7.9346666 0 0 0 7.130859 7.892578c-1.045005-.106384-.158977-.05869.691406 1.185547.848507 1.24149 1.349344 3.238134 1.351563 3.462891-.0018.512576-.399822 1.891315-.972656 2.6875-.573705.797392-.939621.75741-.521485.714843a7.9346666 7.9346666 0 0 0 .69336 15.826172c24.318983.335805 49.392183.164063 73.855469.164063h.0898a7.9346666 7.9346666 0 0 0 .62696-.02539c5.23909-.415519 9.39009-3.495985 11.91601-6.984375 2.52593-3.48839 3.85569-7.537286 3.85742-11.861328a7.9346666 7.9346666 0 0 0 0-.0098c-.004-4.529652-1.37044-8.585651-3.72265-12.4160152-2.35221-3.8303641-6.1194-8.04305015-12.44727-8.54492193a7.9346666 7.9346666 0 0 0 -.62695-.02539062h-.11328z" fill="url(#f)"/><path d="m37.147634 7.923867v.076133c4.933665.5022579 9.176373 7.588059 9.176392 12.547223-.0061 4.954681-3.696577 10.787001-8.625786 11.288802 24.206278.334248 49.245955.163975 73.74598.163975h.0884c5.02462-.398509 8.46536-5.90091 8.46738-10.941295-.004-5.038883-3.84107-12.6603151-8.86418-13.058705h-.11719z" fill="url(#d)"/></g></svg>

<?xml version="1.0" encoding="UTF-8" standalone="no"?>
<!-- Created with Inkscape (http://www.inkscape.org/) -->

<svg
   xmlns:dc="http://purl.org/dc/elements/1.1/"
   xmlns:cc="http://creativecommons.org/ns#"
   xmlns:rdf="http://www.w3.org/1999/02/22-rdf-syntax-ns#"
   xmlns:svg="http://www.w3.org/2000/svg"
   xmlns="http://www.w3.org/2000/svg"
   xmlns:xlink="http://www.w3.org/1999/xlink"
   xmlns:sodipodi="http://sodipodi.sourceforge.net/DTD/sodipodi-0.dtd"
   xmlns:inkscape="http://www.inkscape.org/namespaces/inkscape"
   version="1.1"
   id="svg2"
   width="128"
   height="128"
   viewBox="0 0 128 128"
   sodipodi:docname="sc_starshapes.horizontal-scroll.svg"
   inkscape:export-filename="/home/rizmut/Dokumen/Rizmut/Github/libreoffice-style-karasa-jaga/build/images_karasa_jaga/cmd/sc_starshapes.horizontal-scroll.png"
   inkscape:export-xdpi="12"
   inkscape:export-ydpi="12"
   inkscape:version="0.92.3 (unknown)">
  <metadata
     id="metadata8">
    <rdf:RDF>
      <cc:Work
         rdf:about="">
        <dc:format>image/svg+xml</dc:format>
        <dc:type
           rdf:resource="http://purl.org/dc/dcmitype/StillImage" />
        <dc:title></dc:title>
      </cc:Work>
    </rdf:RDF>
  </metadata>
  <defs
     id="defs6">
    <linearGradient
       id="linearGradient3369">
      <stop
         id="stop3372"
         offset="0"
         style="stop-color:#ffffff;stop-opacity:1;" />
      <stop
         style="stop-color:#ffffff;stop-opacity:1;"
         offset="0.59375"
         id="stop3374" />
      <stop
         style="stop-color:#f1f1f1;stop-opacity:1;"
         offset="0.84375"
         id="stop3376" />
      <stop
         id="stop3378"
         offset="0.90625"
         style="stop-color:#eaeaea;stop-opacity:1;" />
      <stop
         id="stop3384"
         offset="1"
         style="stop-color:#dfdfdf;stop-opacity:1;" />
    </linearGradient>
    <linearGradient
       id="linearGradient7422">
      <stop
         style="stop-color:#7c9fcf;stop-opacity:1"
         offset="0"
         id="stop7424" />
      <stop
         id="stop5348"
         offset="0.5"
         style="stop-color:#7c9ece;stop-opacity:1" />
      <stop
         id="stop7426"
         offset="1"
         style="stop-color:#7b9dcf;stop-opacity:1" />
    </linearGradient>
    <linearGradient
       inkscape:collect="always"
       xlink:href="#linearGradient3369"
       id="linearGradient849"
       x1="127"
       y1="66"
       x2="0.02636461"
       y2="63.973637"
       gradientUnits="userSpaceOnUse" />
    <linearGradient
       inkscape:collect="always"
       xlink:href="#linearGradient3369"
       id="linearGradient857"
       x1="128.02637"
       y1="23.973637"
       x2="0.02636461"
       y2="23.973637"
       gradientUnits="userSpaceOnUse" />
    <linearGradient
       inkscape:collect="always"
       xlink:href="#linearGradient3369"
       id="linearGradient865"
       x1="128.02637"
       y1="111.97363"
       x2="0.02636461"
       y2="111.97363"
       gradientUnits="userSpaceOnUse" />
    <linearGradient
       inkscape:collect="always"
       xlink:href="#linearGradient7422"
       id="linearGradient914"
       x1="29.214844"
       y1="19.98387"
       x2="127.93359"
       y2="19.98387"
       gradientUnits="userSpaceOnUse" />
    <linearGradient
       inkscape:collect="always"
       xlink:href="#linearGradient7422"
       id="linearGradient916"
       x1="10.256022"
       y1="64"
       x2="112.10156"
       y2="64"
       gradientUnits="userSpaceOnUse" />
    <linearGradient
       inkscape:collect="always"
       xlink:href="#linearGradient7422"
       id="linearGradient918"
       x1="0.11913911"
       y1="107.95215"
       x2="96.394531"
       y2="107.95215"
       gradientUnits="userSpaceOnUse" />
  </defs>
  <sodipodi:namedview
     pagecolor="#ffffff"
     bordercolor="#666666"
     borderopacity="1"
     objecttolerance="10"
     gridtolerance="10"
     guidetolerance="10"
     inkscape:pageopacity="0"
     inkscape:pageshadow="2"
     inkscape:window-width="1366"
     inkscape:window-height="706"
     id="namedview4"
     showgrid="true"
     inkscape:snap-page="true"
     inkscape:snap-global="true"
     inkscape:zoom="1.4142136"
     inkscape:cx="80.228292"
     inkscape:cy="-25.182872"
     inkscape:window-x="0"
     inkscape:window-y="0"
     inkscape:window-maximized="1"
     inkscape:current-layer="svg2"
     inkscape:snap-smooth-nodes="true"
     showguides="false"
     inkscape:guide-bbox="true">
    <inkscape:grid
       type="xygrid"
       id="grid27"
       spacingx="8"
       spacingy="8"
       empspacing="2" />
    <sodipodi:guide
       position="51.972346,56"
       orientation="0,1"
       id="guide841"
       inkscape:locked="false" />
  </sodipodi:namedview>
  <g
     id="g945"
     transform="matrix(0,1,1,0,0.026364,-0.02636461)">
    <path
       d="M 88.501953,88.023438 17.675781,88.125 l -6.091797,-0.0059 a 7.882265,7.882265 0 0 0 -0.01953,0 c -2.6814441,0.0039 -5.0720755,1.36662 -6.3730468,2.611328 -1.3009712,1.244708 -1.9287519,2.386212 -2.421875,3.40625 -0.9862461,2.040075 -1.3875436,3.801759 -1.7363281,5.566406 -0.69756901,3.529295 -0.91317658,6.723935 -0.91406248,8.941405 a 7.882265,7.882265 0 0 0 0,0.01 c 0.003704,4.61988 1.61645768,8.69925 4.24999998,12.17187 2.6335424,3.47263 6.6582364,6.60218 12.0683594,7.03125 a 7.882265,7.882265 0 0 0 0.623047,0.0234 h 0.125 a 7.882265,7.882265 0 0 0 0.03125,0 l 70.828125,-0.2832 a 7.882265,7.882265 0 0 0 7.849609,-7.88086 v -0.0762 A 7.882265,7.882265 0 0 0 88.8125,111.79883 c 0.270242,0.0275 -0.291598,-0.078 -0.90625,-0.86914 -0.613611,-0.78978 -0.971442,-2.02941 -0.972656,-2.37696 0.0025,-0.0901 0.50118,-2.05854 1.40625,-3.32031 0.90727,-1.26484 1.952342,-1.422 0.972656,-1.32226 a 7.882265,7.882265 0 0 0 7.082031,-7.841801 v -0.164062 a 7.882265,7.882265 0 0 0 -7.892578,-7.880859 z"
       id="path879"
       style="opacity:1;fill:url(#linearGradient918);fill-opacity:1;stroke:none;stroke-width:3.99787569;stroke-linecap:round;stroke-linejoin:bevel;stroke-miterlimit:4;stroke-dasharray:none;stroke-dashoffset:0;stroke-opacity:0.94852941"
       inkscape:original="M 88.513672 95.904297 L 17.677734 96.005859 L 11.576172 96 C 8.8472001 96.004 8.0011662 105.72935 8 108.64844 C 8.00404 113.68732 12.037435 119.60162 17.060547 120 L 17.185547 120 L 88.013672 119.7168 L 88.013672 119.64062 C 83.080005 119.13837 79.050797 113.508 79.050781 108.54883 C 79.056781 103.59415 83.584465 96.570159 88.513672 96.068359 L 88.513672 95.904297 z "
       inkscape:radius="7.8814769"
       sodipodi:type="inkscape:offset" />
    <path
       sodipodi:nodetypes="ccccccccccc"
       inkscape:connector-curvature="0"
       style="opacity:1;fill:url(#linearGradient865);fill-opacity:1;stroke:none;stroke-width:3.99787569;stroke-linecap:round;stroke-linejoin:bevel;stroke-miterlimit:4;stroke-dasharray:none;stroke-dashoffset:0;stroke-opacity:0.94852941"
       d="m 88.012991,119.71688 v -0.0762 c -4.933667,-0.50225 -8.96237,-6.13328 -8.962386,-11.09245 0.006,-4.95468 4.533179,-11.97747 9.462386,-12.47927 V 95.90498 L 17.677115,96.005 11.575898,96 C 8.8469262,96.004 8.0011662,105.72867 8,108.64776 8.00404,113.68664 12.036815,119.60162 17.059927,120 h 0.125 z"
       id="path1456" />
    <path
       d="M 32,-0.01171875 A 8.0116215,8.0116215 0 0 0 31.064453,0.04492187 C 22.483638,1.0544054 16.350736,9.2310856 15.996094,17.296875 a 8.0116215,8.0116215 0 0 0 -0.0078,0.367187 l 0.1875,94.294918 a 8.0116215,8.0116215 0 0 0 -0.5,0.4629 8.0116215,8.0116215 0 0 0 2.082031,15.57617 c 0.229942,0.0134 0.485837,-0.002 0.730469,-0.002 a 8.0116215,8.0116215 0 0 0 0.367188,0.0156 H 96 c 8.16673,0 16.0033,-6.91471 16.01172,-15.38477 l 0.0898,-90.796872 a 8.0116215,8.0116215 0 0 0 -0.002,-0.06055 L 112.00977,7.9472656 A 8.0116215,8.0116215 0 0 0 104,-0.01171875 Z"
       id="path875"
       style="opacity:1;fill:url(#linearGradient916);fill-opacity:1;stroke:none;stroke-width:3.99787569;stroke-linecap:round;stroke-linejoin:bevel;stroke-miterlimit:4;stroke-dasharray:none;stroke-dashoffset:0;stroke-opacity:0.90808835"
       inkscape:original="M 32 8 C 27.164815 8.5688317 24.231835 12.375716 24 17.648438 L 24.189453 113.08008 C 24.194053 115.39335 23.111114 116.59906 21.402344 118.02344 C 20.866688 119.10581 20.246455 119.91551 18.855469 120 L 96 120 C 100.63552 120 103.99571 116.93496 104 112.61914 L 104.08984 21.822266 L 104 8 L 32 8 z M 18.222656 120 C 18.394419 120.01 18.555418 120.01 18.710938 120 L 18.222656 120 z "
       inkscape:radius="8.0108204"
       sodipodi:type="inkscape:offset" />
    <path
       style="opacity:1;fill:url(#linearGradient849);fill-opacity:1;stroke:none;stroke-width:3.99787569;stroke-linecap:round;stroke-linejoin:bevel;stroke-miterlimit:4;stroke-dasharray:none;stroke-dashoffset:0;stroke-opacity:0.90808835"
       d="m 32,8 c -4.835185,0.5688317 -7.768165,4.375773 -8,9.648494 l 0.189022,95.431736 c 0.0046,2.31327 -1.078149,3.51822 -2.786919,4.9426 -0.535656,1.08237 -1.156229,1.89268 -2.547215,1.97717 H 96 c 4.63552,0 7.99571,-3.06579 8,-7.38161 L 104.0903,21.823114 104,8 Z M 18.711033,120 h -0.488387 c 0.171763,0.01 0.332867,0.01 0.488387,0 z"
       id="path881"
       inkscape:connector-curvature="0"
       sodipodi:nodetypes="ccsccsscccccc" />
    <path
       d="M 37.15625,-0.00976563 A 7.9346666,7.9346666 0 0 0 29.214844,7.9238281 V 8 a 7.9346666,7.9346666 0 0 0 7.130859,7.892578 c -1.045005,-0.106384 -0.158977,-0.05869 0.691406,1.185547 0.848507,1.24149 1.349344,3.238134 1.351563,3.462891 -0.0018,0.512576 -0.399822,1.891315 -0.972656,2.6875 -0.573705,0.797392 -0.939621,0.75741 -0.521485,0.714843 a 7.9346666,7.9346666 0 0 0 0.69336,15.826172 c 24.318983,0.335805 49.392183,0.164063 73.855469,0.164063 h 0.0898 a 7.9346666,7.9346666 0 0 0 0.62696,-0.02539 c 5.23909,-0.415519 9.39009,-3.495985 11.91601,-6.984375 2.52593,-3.48839 3.85569,-7.537286 3.85742,-11.861328 a 7.9346666,7.9346666 0 0 0 0,-0.0098 c -0.004,-4.529652 -1.37044,-8.585651 -3.72265,-12.4160152 -2.35221,-3.8303641 -6.1194,-8.04305015 -12.44727,-8.54492193 a 7.9346666,7.9346666 0 0 0 -0.62695,-0.02539062 h -0.11328 z"
       id="path871"
       style="opacity:1;fill:url(#linearGradient914);fill-opacity:1;stroke:none;stroke-width:3.99787569;stroke-linecap:round;stroke-linejoin:bevel;stroke-miterlimit:4;stroke-dasharray:none;stroke-dashoffset:0;stroke-opacity:1"
       inkscape:original="M 37.148438 7.9238281 L 37.148438 8 C 42.082102 8.5022579 46.3242 15.587711 46.324219 20.546875 C 46.318119 25.501556 42.626475 31.334137 37.697266 31.835938 C 61.903544 32.170186 86.943334 32 111.44336 32 L 111.5332 32 C 116.55782 31.601491 119.99798 26.098979 120 21.058594 C 119.996 16.019711 116.15983 8.3983899 111.13672 8 L 111.01953 8 L 37.148438 7.9238281 z "
       inkscape:radius="7.9338732"
       sodipodi:type="inkscape:offset" />
    <path
       sodipodi:nodetypes="cccccccccc"
       inkscape:connector-curvature="0"
       id="circle1449"
       d="M 37.147634,7.923867 V 8 c 4.933665,0.5022579 9.176373,7.588059 9.176392,12.547223 -0.0061,4.954681 -3.696577,10.787001 -8.625786,11.288802 C 61.904518,32.170273 86.944195,32 111.44422,32 h 0.0884 C 116.55724,31.601491 119.99798,26.09909 120,21.058705 119.996,16.019822 116.15893,8.3983899 111.13582,8 h -0.11719 z"
       style="opacity:1;fill:url(#linearGradient857);fill-opacity:1;stroke:none;stroke-width:3.99787569;stroke-linecap:round;stroke-linejoin:bevel;stroke-miterlimit:4;stroke-dasharray:none;stroke-dashoffset:0;stroke-opacity:1" />
  </g>
</svg>
